X:345
T:Casadh an tSugain
T:Twisting the Hayrope
O:ireland
M:C
R:Slow air
K:G
GA|\
B2GE D3E| G2AB c3A| BA G2 E2E2| E4- E3D|\
G2G2 A2GA| B2GE D3E| G2GA G4-| G4-G2::
Bd|\
e2ed d3g| e2-ef/e/ d3B| c3A BAG2| E4-E2 DE|\
G2G2 A2GA| B2GE D3E| G2GA G4-| G4-G2:|
